packages/foundations/assets/icons/functional/images/transportation/train_and_car_14.svg

<svg width="14" height="14" viewBox="0 0 14 14" fill="none" xmlns="http://www.w3.org/2000/svg">
<g clip-path="url(#clip0_187_992)">
<path fill-rule="evenodd" clip-rule="evenodd" d="M2.10733 10.6404C2.59803 10.9939 2.94663 11.234 3.15243 11.36C3.46043 11.5497 3.85033 11.689 4.31303 11.7198H5.24963V12.6004H3.85173C3.51853 12.6004 3.23993 12.3673 3.16923 12.0551C2.74923 11.7569 2.38663 11.3068 2.10733 10.6404ZM9.48113 6.65036C9.54343 6.65106 9.60573 6.65106 9.66663 6.65106L10.3121 6.65136C10.354 6.65146 10.3942 6.65156 10.4326 6.65166L10.7237 6.65256C10.7751 6.65276 10.8166 6.65296 10.8468 6.65316C11.2507 6.65666 11.6497 6.97586 11.7414 7.33356C11.803 7.57226 11.9332 7.80186 12.1327 8.72306L12.2433 9.09896H12.5996V10.499L12.3336 10.5004C12.3063 10.7426 12.2867 10.8973 12.2734 10.9652C12.2678 10.996 12.2594 11.0289 12.2496 11.0625V12.599H10.8496V11.9641L10.7838 11.9886C10.2224 12.0719 9.66103 12.1139 9.09963 12.1139C8.53823 12.1139 7.97683 12.0726 7.41543 11.9886L7.34963 11.9648V12.599H5.94963V11.0667C5.93143 10.9988 5.90483 10.8119 5.86843 10.4997H5.59963V9.09966H5.95523L6.06583 8.72306L6.43193 7.40986C6.54603 7.01996 6.88553 6.65036 7.43573 6.65036H9.48113ZM5.23423 1.39966C7.81303 1.39966 9.06603 3.15176 9.09823 5.60386V5.94966H7.72343C7.78013 5.75086 7.95093 4.97946 7.98173 4.77226C8.07133 4.16746 7.51063 3.32816 7.04863 3.11676C6.58663 2.90536 5.98813 2.79966 5.25173 2.79966C4.44393 2.79966 3.80133 2.92706 3.32393 3.18186C2.78283 3.47096 2.42863 4.12756 2.52313 4.77506C2.66033 5.43796 2.74783 5.83276 2.78493 5.95946C2.89623 6.34166 3.20213 6.63286 3.58363 6.72876C4.26193 6.85056 4.81843 6.91216 5.25173 6.91496C5.38193 6.91589 5.52302 6.90967 5.67126 6.89878L5.89833 6.87866L5.84699 6.98517C5.83045 7.02131 5.81487 7.05812 5.8005 7.09582L5.76133 7.21176L5.42393 8.42136C5.12293 8.49976 4.90033 8.77346 4.90033 9.09896V10.499C4.90033 10.5599 4.90873 10.618 4.92343 10.674H4.48803C4.15623 10.674 3.82583 10.5515 3.60533 10.4038C3.38483 10.2561 2.86263 9.89276 2.45593 9.59246C2.18503 9.39226 1.91833 9.18226 1.65653 8.96386C1.48573 8.04616 1.40033 7.39306 1.40033 7.00526V5.60386C1.40033 3.15106 2.59593 1.39966 5.23423 1.39966ZM7.10183 9.72126C6.91563 9.67156 6.72313 9.78286 6.67343 9.96906C6.62373 10.1553 6.73433 10.3478 6.92123 10.3975L7.59743 10.5788C7.78363 10.6285 7.97613 10.5179 8.02583 10.331C8.07553 10.1448 7.96493 9.95226 7.77803 9.90256L7.10183 9.72126ZM11.0974 9.72126L10.4212 9.90256C10.2343 9.95226 10.1237 10.1441 10.1734 10.331C10.2231 10.5179 10.4149 10.6285 10.6018 10.5788L11.278 10.3975C11.4649 10.3478 11.5755 10.156 11.5258 9.96906C11.4761 9.78216 11.2843 9.67156 11.0974 9.72126ZM3.33583 7.55196C3.08383 7.63596 2.93753 7.89286 2.98583 8.14696L3.38063 9.33206C3.49473 9.56446 3.76563 9.68206 4.01763 9.59806C4.26963 9.51406 4.41593 9.25716 4.36763 9.00306L3.97283 7.81796C3.85873 7.58556 3.58783 7.46796 3.33583 7.55196ZM10.7796 7.69966H7.41963L7.00663 9.09966H11.1996L10.7796 7.69966Z" fill="#1A1C1F"/>
</g>
<defs>
<clipPath id="clip0_187_992">
<rect width="14" height="14" fill="white"/>
</clipPath>
</defs>
</svg>

<svg xmlns="http://www.w3.org/2000/svg" width="14" height="14" fill="none"><g clip-path="url(#a)"><path fill="#1A1C1F" fill-rule="evenodd" d="M2.107 10.64q.737.531 1.045.72c.308.19.698.329 1.161.36h.937v.88H3.852a.7.7 0 0 1-.683-.545c-.42-.298-.782-.748-1.062-1.415m7.374-3.99.186.001h.765l.292.002h.123c.404.004.803.323.894.68.062.24.192.469.392 1.39l.11.376h.357v1.4l-.266.001a8 8 0 0 1-.06.465 1 1 0 0 1-.024.098v1.536h-1.4v-.635l-.066.025a11.5 11.5 0 0 1-3.369 0l-.065-.024v.634h-1.4v-1.532a6 6 0 0 1-.082-.567H5.6V9.1h.355l.11-.377.367-1.313c.114-.39.454-.76 1.004-.76zM5.234 1.4c2.579 0 3.832 1.752 3.864 4.204v.346H7.723c.057-.2.228-.97.259-1.178.09-.605-.471-1.444-.933-1.655Q6.357 2.8 5.252 2.8q-1.211 0-1.928.382a1.59 1.59 0 0 0-.8 1.593q.205.995.26 1.184c.112.383.418.674.8.77q1.017.182 1.668.186.196 0 .42-.016l.226-.02-.051.106-.046.11-.04.117-.337 1.21a.7.7 0 0 0-.524.677v1.4q.001.09.023.175h-.435c-.332 0-.662-.122-.883-.27s-.742-.511-1.15-.812q-.406-.3-.798-.628Q1.4 7.588 1.4 7.005V5.604C1.4 3.15 2.596 1.4 5.234 1.4M7.102 9.72a.35.35 0 0 0-.18.677l.675.18a.35.35 0 0 0 .181-.675zm3.995 0-.676.182a.35.35 0 1 0 .18.676l.677-.181a.35.35 0 1 0-.18-.677M3.336 7.552a.525.525 0 0 0-.35.595l.395 1.185a.525.525 0 0 0 .987-.329l-.395-1.185a.525.525 0 0 0-.637-.266m7.444.148H7.42l-.413 1.4H11.2z" clip-rule="evenodd"/></g><defs><clipPath id="a"><path fill="#fff" d="M0 0h14v14H0z"/></clipPath></defs></svg>
